assets/emojis/RelievedFace.svg

<svg width="126" height="126" viewBox="0 0 126 126" fill="none" xmlns="http://www.w3.org/2000/svg">
<circle cx="62.874" cy="62.77" r="62.3496" fill="#F9B42F"/>
<path opacity="0.3" fill-rule="evenodd" clip-rule="evenodd" d="M113.81 98.9414C102.488 110.533 86.6859 117.728 69.203 117.728C34.7683 117.728 6.85345 89.8133 6.85345 55.3786C6.85345 41.9829 11.0779 29.5739 18.2673 19.4111C7.28955 30.6503 0.524414 46.022 0.524414 62.9739C0.524414 97.4086 28.4393 125.324 62.874 125.324C83.9131 125.324 102.518 114.903 113.81 98.9414Z" fill="#BC8417"/>
<path d="M63.191 85.0283C55.8465 85.0283 49.5639 82.4798 47.5641 78.6749C47.3588 78.2792 47.3104 77.8207 47.4285 77.3909C47.5466 76.9611 47.8226 76.5917 48.2012 76.3565C48.4066 76.2451 48.6321 76.1754 48.8646 76.1516C49.0971 76.1278 49.3321 76.1502 49.5558 76.2177C49.7796 76.2852 49.9878 76.3963 50.1684 76.5447C50.349 76.693 50.4984 76.8757 50.608 77.0821C51.7407 79.2589 56.519 81.5596 63.1025 81.5596C69.6859 81.5596 74.7651 79.1704 75.7031 76.852C75.8814 76.4155 76.2259 76.0677 76.6607 75.8852C77.0954 75.7027 77.5849 75.7003 78.0214 75.8787C78.458 76.057 78.8057 76.4015 78.9883 76.8363C79.1708 77.2711 79.1732 77.7605 78.9948 78.197C77.3489 82.1967 70.7832 85.0283 63.191 85.0283Z" fill="#2C2A46"/>
<path fill-rule="evenodd" clip-rule="evenodd" d="M81.719 56.125H94.9037C95.4404 56.1297 95.9535 56.3461 96.3313 56.7273C96.7092 57.1085 96.9212 57.6235 96.9212 58.1602C96.9212 58.6969 96.7092 59.2119 96.3313 59.5931C95.9535 59.9743 95.4404 60.1908 94.9037 60.1954H81.719C81.4488 60.2001 81.1804 60.151 80.9293 60.0508C80.6783 59.9506 80.4497 59.8014 80.257 59.612C80.0642 59.4225 79.9112 59.1966 79.8067 58.9473C79.7022 58.6981 79.6484 58.4305 79.6484 58.1602C79.6484 57.6204 79.8629 57.1028 80.2445 56.7211C80.6262 56.3394 81.1439 56.125 81.6837 56.125H81.719Z" fill="#2C2A46"/>
<path fill-rule="evenodd" clip-rule="evenodd" d="M31.0263 56.1243H44.2109C44.4812 56.1196 44.7496 56.1688 45.0006 56.269C45.2517 56.3691 45.4802 56.5183 45.673 56.7078C45.8657 56.8972 46.0188 57.1232 46.1233 57.3724C46.2278 57.6217 46.2816 57.8893 46.2815 58.1595C46.2815 58.6993 46.0671 59.217 45.6854 59.5987C45.3038 59.9803 44.7861 60.1948 44.2463 60.1948H31.0263C30.4896 60.1901 29.9765 59.9736 29.5986 59.5924C29.2208 59.2113 29.0088 58.6963 29.0088 58.1595C29.0088 57.6228 29.2208 57.1078 29.5986 56.7267C29.9765 56.3455 30.4896 56.129 31.0263 56.1243Z" fill="#2C2A46"/>
</svg>

<svg xmlns="http://www.w3.org/2000/svg" width="126" height="126" fill="none" viewBox="0 0 126 126"><circle cx="62.874" cy="62.77" r="62.35" fill="#f9b42f"/><path fill="#bc8417" fill-rule="evenodd" d="M113.81 98.941c-11.322 11.592-27.124 18.787-44.607 18.787-34.435 0-62.35-27.915-62.35-62.35 0-13.395 4.225-25.804 11.414-35.967C7.29 30.651.524 46.022.524 62.974c0 34.435 27.915 62.35 62.35 62.35 21.04 0 39.644-10.421 50.936-26.383" clip-rule="evenodd" opacity=".3"/><path fill="#2c2a46" d="M63.191 85.028c-7.345 0-13.627-2.548-15.627-6.353a1.77 1.77 0 0 1 .637-2.318 1.77 1.77 0 0 1 2.407.725c1.133 2.177 5.911 4.478 12.495 4.478s11.662-2.39 12.6-4.708a1.778 1.778 0 1 1 3.292 1.345c-1.646 4-8.212 6.831-15.804 6.831"/><path fill="#2c2a46" fill-rule="evenodd" d="M81.719 56.125h13.185a2.035 2.035 0 0 1 0 4.07H81.719a2.035 2.035 0 1 1-.035-4.07zm-50.693-.001h13.185a2.034 2.034 0 1 1 .035 4.07h-13.22a2.035 2.035 0 0 1 0-4.07" clip-rule="evenodd"/></svg>
